X:1
T:Våhr - Wijsa
T:Knut Håkanson (1887-1929)
T:Text: Lars Wiwallius (1605-1669)
T:Våhr - Wijsa
T:Op 36 nr 2
%%score [ 1 2 3 4 ]
L:1/8
Q:1/4=100
M:4/4
K:B
V:1 treble nm="S"
V:2 treble nm="A"
V:3 treble-8 nm="T"
V:4 bass nm="B"
V:1
"^Andantino grazioso"!mp! A2 | cc d2 c2 z A | cc f2 c2 z A | c2!<(! d2 ee d2 | %4
w: Godt|Mai- je- Regn giff, lät|dug- ga tätt neer, Lät|warm Dagg Ör- ter- na|
w: Giff|Gläd- ie och Tröst, lät|Lär- ckian ey döö, Lät|lef- wa Som- ma- rens|
w: Lät|Grä- set blij blött, och|Bloms- te- ren skiön, Lät|dant- za lil- la Le-|
 (BG!<)! c2)!f! c2 z2 | z2 z!mp! F AA B2 | A2 z F AA d2 |!<(! AABB GG!<)! e2 | %8
w: fuch- * * ta,|Oss Tor- ckan bort-|drijff, lät Fros- ten ey|meer The spä- da Bloms- te- ren|
w: Swa- * * la.|Hug- swa- la hwart|Bröst på Swe- ri- ges|Öö, Som nu mon sor- ge- ligt|
w: kat- * * ten,|Lät fläch- ta oss|sött, widt uth up- på|Siön, Lät skönt Wäär blå- sa på|
!>(! (dc d2)!>)! c2 z!mp! C |[M:3/4] (AG) A z z"^cresc." F | (cB) c z z c |!<(! (e2 d3)!<)! c!f! | %12
w: tuch- * * ta: Var|nå- * digh, war|rå- * digh, För|them * iagh|
w: ta- * * la. Giff|Som- * mar, Giff|Blom- * mor, Giff|gott * grönt|
w: Hat- * * ten, På|Äng- * en, giff|Säng- * en, I|Grä- * set|
 d3 z!ff! c2 |"^Largamente" f4 d2 | c2 A2 B2 | (A2 G3 F) | !fermata!F6 |] %17
w: beer, Som|Her- ran|tie- na och|fruch- * *|ta.|
w: Höö, Lät|Gö- ken|ro- pa och|ga- * *|la.|
w: grön, Åth|them som|fär- das om|Nat- * *|ten.|
V:2
!mp! F2 | AA A2 F2 z F | AA A2 F2 z F | A2 F2 GG F2 | (D2 ^E2)!f! F2 z2 | z2 z!mp! D FF F2 | %6
w: Godt|Mai- je- Regn giff, lät|dug- ga tätt neer, Lät|warm Dagg Ör- ter- na|fuch- * ta,|Oss Tor- ckan bort-|
w: Giff|Gläd- ie och Tröst, lät|Lär- ckian ey döö, Lät|lef- wa Som- ma- rens|Swa- * la.|Hug- swa- la hwart|
w: Lät|Grä- set blij blött, och|Bloms- te- ren skiön, Lät|dant- za lil- la Le-|kat- * ten,|Lät fläch- ta oss|
 D2 z D FF F2 | DDDD EE G2 | (=A2 GF) ^E2 z!mp! C |[M:3/4] (F^E) F z z"^cresc." F | (AG) A z z A | %11
w: drijff, lät Fros- ten ey|meer The spä- da Bloms- te- ren|tuch- * * ta: Var|nå- * digh, war|rå- * digh, För|
w: Bröst på Swe- ri- ges|Öö, Som nu mon sor- ge- ligt|ta- * * la. Giff|Som- * mar, Giff|Blom- * mor, Giff|
w: sött, widt uth up- på|Siön, Lät skönt Wäär blå- sa på|Hat- * * ten, På|Äng- * en, giff|Säng- * en, I|
 (c2 B3) A!f! | B3 z!ff! G2 | c4 B2 | G2 F2 G2 | (F3 ^E/D/ E2) | !fermata!C6 |] %17
w: them * iagh|beer, Som|Her- ran|tie- na och|fruch- * * *|ta.|
w: gott * grönt|Höö, Lät|Gö- ken|ro- pa och|ga- * * *|la.|
w: Grä- * set|grön, Åth|them som|fär- das om|Nat- * * *|ten.|
V:3
 z2 | z2!mp! A2 cc d2 | c2 z A cc f2 | ccBB Bc A2 | (B2 cB)!f! A2 z!mp! F | AA B2 A2 z F | %6
w: |Godt Mai- je- Regn|giff, lät dug- ga tätt|neer, Lät warm Dagg Ör- ter- na|fuch- * * ta, Oss|Tor- ckan bort- drijff, lät|
w: |Giff Gläd- ie och|Tröst, lät Lär- ckian ey|döö, Lät lef- wa Som- ma- rens|Swa- * * la. Hug-|swa- la hwart Bröst på|
w: |Lät Grä- set blij|blött, och Bloms- te- ren|skiön, Lät dant- za lil- la Le-|kat- * * ten, Lät|fläch- ta oss sött, widt|
 AA d2 A2 z A | F2 (FB) BB c2 | (c2 ^B2) c2 z2 |[M:3/4] z!mp! C (AG) A z | z"^cresc." F (cB) c z | %11
w: Fros- ten ey meer The|spä- da * Bloms- te- ren|tuch- * ta:|Var nå- * digh,|war rå- * digh,|
w: Swe- ri- ges Öö, Som|nu mon * sor- ge- ligt|ta- * la.|Giff Som- * mar,|Giff Blom- * mor,|
w: uth up- på Siön, Lät|skönt Wäär * blå- sa på|Hat- * ten,|På Äng- * en,|giff Säng- * en,|
 z A (Bc) (de)!f! | f3 z!ff! ^e2 | f4 (gf) | ^e2 f2 d2 | (c4- cB) | !fermata!A6 |] %17
w: För them * iagh *|beer, Som|Her- ran *|tie- na och|fruch- * *|ta.|
w: Giff gott * grönt *|Höö, Lät|Gö- ken *|ro- pa och|ga- * *|la.|
w: I Grä- * set *|grön, Åth|them som *|fär- das om|Nat- * *|ten.|
V:4
 z2 | z2!mp! F,2 A,A, A,2 | F,2 z F, A,A, A,2 | F,F,!<(!B,B, E,C, D,2 | %4
 (G,2 A,!<)!G,)!f! F,2 z!mp! D, | F,F, F,2 D,2 z D, | F,F, F,2 D,2 z D, | %7
!<(! D,2 B,,2 E,!<)!E, C,2 |!>(! (F,2 G,2)!>)! C,2 z2 |[M:3/4] z!mp! C, (F,^E,) F, z | %10
 z"^cresc." F, (A,G,) A, z |!<(! z F, (G,A,) (B,C)!<)!!f! | B,3 z!ff! [C,C]2 | [A,,A,]4 [B,,B,]2 | %14
 [C,C]2 [D,D]2 [G,,G,]2 | ([A,,A,][B,,B,] [C,C]2 C,2) | !fermata![F,,F,]6 |] %17

